static/assets/template/assets/img/icons/clothing/blazer.svg

<svg viewBox="0 0 119.2 108" xmlns="http://www.w3.org/2000/svg"><path d="m59.63 72a2 2 0 1 1 2-2 2 2 0 0 1 -2 2zm0 14a2 2 0 1 1 2-2 2 2 0 0 1 -2 2zm35.73-76-26.36-6h-.15l-9.25 56-9.27-56h-.15l-26.34 6-19.84 66.39 17.7 7.66 8.1-29.36v45.36c0 2 10.76 3.63 24.86 4l4.94-10 4.94 10c14.1-.32 24.86-2 24.86-4v-45.36l8.1 29.36 17.73-7.66zm21.43 70.06-17.72 7.66a3.88 3.88 0 0 1 -1.57.33 3.83 3.83 0 0 1 -1.71-.4 4 4 0 0 1 -2.11-2.53l-.31-1.12v16c0 4.91-6.57 5.94-10.5 6.56a146.68 146.68 0 0 1 -18.24 1.44h-.09a4 4 0 0 1 -3.54-2.21l-1.4-2.79-1.38 2.79a4 4 0 0 1 -3.56 2.21h-.08a146.7 146.7 0 0 1 -18.25-1.39c-3.93-.62-10.5-1.65-10.5-6.56v-16.05l-.3 1.1a4 4 0 0 1 -2.11 2.53 3.87 3.87 0 0 1 -1.72.4 3.92 3.92 0 0 1 -1.57-.33l-17.72-7.63a4 4 0 0 1 -2.24-4.83l19.83-66.39a4 4 0 0 1 3-2.75l26.3-6a3.71 3.71 0 0 1 .88-.1h.15a4 4 0 0 1 3.92 3.35l5.35 32.34 5.35-32.34a4 4 0 0 1 3.92-3.35h.13a3.71 3.71 0 0 1 .88.1l26.34 6a4 4 0 0 1 2.92 2.75l19.86 66.39a4 4 0 0 1 -2.21 4.83z" fill-rule="evenodd"/></svg>

<svg xmlns="http://www.w3.org/2000/svg" viewBox="0 0 119.2 108"><defs><style>.cls-1{fill-rule:evenodd;}</style></defs><title>blazer</title><g id="Layer_2" data-name="Layer 2"><g id="Layer"><path class="cls-1" d="M59.63,72a2,2,0,1,1,2-2A2,2,0,0,1,59.63,72Zm0,14a2,2,0,1,1,2-2A2,2,0,0,1,59.63,86ZM95.36,10,69,4h-.15L59.6,60,50.33,4h-.15L23.84,10,4,76.39,21.7,84.05l8.1-29.36v45.36c0,2,10.76,3.63,24.86,4l4.94-10,4.94,10c14.1-.32,24.86-2,24.86-4V54.69l8.1,29.36,17.73-7.66Zm21.43,70.06L99.07,87.72a3.88,3.88,0,0,1-1.57.33,3.83,3.83,0,0,1-1.71-.4,4,4,0,0,1-2.11-2.53L93.37,84v16c0,4.91-6.57,5.94-10.5,6.56A146.68,146.68,0,0,1,64.63,108h-.09A4,4,0,0,1,61,105.79L59.6,103l-1.38,2.79A4,4,0,0,1,54.66,108h-.08a146.7,146.7,0,0,1-18.25-1.39c-3.93-.62-10.5-1.65-10.5-6.56V84l-.3,1.1a4,4,0,0,1-2.11,2.53,3.87,3.87,0,0,1-1.72.4,3.92,3.92,0,0,1-1.57-.33L2.41,80.07A4,4,0,0,1,.17,75.24L20,8.85A4,4,0,0,1,23,6.1L49.3.1a3.71,3.71,0,0,1,.88-.1h.15a4,4,0,0,1,3.92,3.35L59.6,35.69,64.95,3.35A4,4,0,0,1,68.87,0H69a3.71,3.71,0,0,1,.88.1l26.34,6a4,4,0,0,1,2.92,2.75L119,75.24A4,4,0,0,1,116.79,80.07Z"/></g></g></svg>
